X:1
T:Bill Cheatham
C:reel
L:1/16
M:2/4
I:linebreak $
K:A
V:1 treble
V:1
 "A" ([EA]2[ce]2) [ce]2[Ae][Be] | ([ce][Be])[Ae][ce] ([Be][Ae])[FA][EA] |"D" (F2[Fd]2) [Fd]2de | (fg)af (ec)BA |$
 "A"  ([EA]2[ce]2) [ce]2[Ae][Be] | ([ce][Be])[Ae][ce] ([Be][Ae])[FA][EA] |"D" (dc)de (fg)af |1"E7" e(cBc) "A" A2(AF) :|2"E7"  e(cBd) "A" A2(cd) |:$
 |: "A" ecea "D"fdfa |"E7" g(efg) "A" abaf | ecea "D"f(agf) |"A"  edcA "E7"[Be]2[Be]2 |$
 "A" ecea"D" fdfa |"E7"  g(efg) "A" a2(3efg | (ag)ab (af)ed |1"E7" (cA)Bc "A" A2(3(agf) :|2"E7" (cA)Bc "A" A4 |]
